X:1
T:Title
%%score { ( 1 3 ) | ( 2 4 ) }
L:1/8
Q:1/4=100
M:4/4
K:Eb
V:1 treble nm="Grand Piano"
V:3 treble 
V:2 bass 
V:4 bass 
V:1
 E>E E>E E2 F>G | [DF]2 [DF]2 E4 | G>G G>G G2 [FA]>[GB] | [DA]2 [DA]2 G4 | c>c c>c A .c3 | %5
w: E.~S.~Lorenz * * * * * *|||||
 B>B B>B G .[GB]3 | B2 d>d d2 B2 | c4 [B,DB]2 z2 | B4 z4 | E2 D2 D2 z2 | A4 z4 | c2 B2 B2 z2 | %12
w: |||||||
 B4 z4 | [EBd]2 [EAc]2 [EAc]2 z2 | [EGB]2 [B,EG]>[A,DF] [G,E]2 [B,EG]2 | [A,DF]4 [G,E]2 z2 |] %16
w: ||||
V:2
 [E,G,]>[E,G,] [E,G,]>[E,G,] [E,G,]2 [E,A,D]>[E,B,E] | [B,,A,]2 [B,,A,]2 [E,G,]4 | %2
 [E,B,E]>[E,B,E] [E,B,E]>[E,B,E] [E,B,E]2 [E,B,]>[E,B,] | [F,B,]2 [B,,B,]2 [E,B,E]4 | %4
 [A,E]>[A,E] [A,E]>[A,E] [A,C] .[A,E]3 | [E,G,E]>[E,G,E] [E,G,E]>[E,G,E] [E,B,E] .[E,E]3 | %6
 [F,DF]2 [F,B,F]>[F,B,F] [F,B,F]2 [F,B,D]2 | [F,=A,E]4 B,,2 z2 | G4 z4 | %9
 [F,A,B,]2 [F,A,B,]2 [B,,A,B,]2 z2 | F4 z4 | [E,A,E]2 [E,G,E]2 [E,G,E]2 z2 | G4 z4 | %13
 A,2 A,2 A,2 z2 | E,2 E,>E, E,2 E,2 | B,,4 E,2 z2 |] %16
V:3
 x8 | x8 | x8 | x8 | x8 | x8 | x8 | x8 | z2 E>[_G=A] [=Gc]>[GB] G>E | x8 | %10
 z2 B,>[=EG] [GB]>[FA] [DF]>D | x8 | z2 E>[E_G=A] [E=Gc]>[EGB] [EG]>[EGe] | x8 | x8 | x8 |] %16
V:4
 x8 | x8 | x8 | x8 | x8 | x8 | x8 | x8 | z2 E,>[E,E] [E,E]>[E,E] [E,B,E]>[G,B,] | x8 | %10
 z2 B,,>[B,,B,] [B,,B,]>[B,,B,] [B,,A,]>[B,,A,] | x8 | z2 E,>E, E,>E, E,>E, | x8 | x8 | x8 |] %16

